X: 34096
T: Reel Des Deux Lisas
R: reel
M: 4/4
K: Dmajor
FG|:A2 fA dA FA|B2gAfA ed|cdef gece|1 defd A2 FG:|2 dfec de fd||
|:abaf defd|efge B2 ed|cdef gece|defd A2 fg|
abaf defd|efge B2 ed|cdef gece|1 dfec defg:|2 dfec d4||

